X:1711
T:The Fiddlers' Contest
M:C|
L:1/8
N:"collected by Cronin"
B:O'Neill's 1711
R:Hornpipe
Z:"Transcribed by Bob Safranek, rjs@gsp.org"
K:A
   (cd) | e^def ecAc | defg agaf | eagf ecAc | BABc  B2 (cd) |
          e^def ecAc | defg agaf | eagf edcB | A2 a2 A2     :|
|: (AF) | EAAB  cAec | FBBc dBfB | defg agaf | edcB  AEFG    |
          EAAB  cAeA | BABc defg | agaf edcB | A2 a2 A2     :|


